tools/download-figma-icons/icons/solid/alarm-sensor.svg

<svg width="24" height="24" viewBox="0 0 24 24" fill="none" xmlns="http://www.w3.org/2000/svg">
<path fill-rule="evenodd" clip-rule="evenodd" d="M16.8971 20.0192C17.0846 20.0192 17.2803 19.9442 17.4296 19.8017C18.8545 18.3699 19.642 16.4724 19.642 14.4467C19.642 12.4217 18.8545 10.525 17.4296 9.09251C17.1303 8.79926 16.6578 8.79926 16.3646 9.09251C16.0721 9.38426 16.0721 9.85675 16.3646 10.15C17.5121 11.2967 18.1421 12.8267 18.1421 14.4467C18.1421 16.0674 17.5121 17.5899 16.3646 18.7367C16.0721 19.0299 16.0721 19.5092 16.3646 19.8017C16.5146 19.9442 16.7021 20.0192 16.8971 20.0192ZM14.5421 17.9867C14.6853 18.13 14.8803 18.2042 15.0678 18.2042C15.2621 18.2042 15.4571 18.13 15.6003 17.9867C16.5446 17.0417 17.0628 15.7892 17.0628 14.4542C17.0628 13.12 16.5446 11.8668 15.6003 10.9218C15.3071 10.63 14.8346 10.63 14.5421 10.9218C14.2503 11.2225 14.2503 11.6943 14.5421 11.9868C15.8996 13.345 15.8996 15.565 14.5421 16.9217C14.2503 17.215 14.2503 17.6942 14.5421 17.9867ZM9.66039 14.4467C9.66039 15.775 10.7396 16.8542 12.0746 16.8542C13.4021 16.8542 14.4821 15.775 14.4821 14.4467C14.4821 13.12 13.4021 12.0393 12.0746 12.0393C10.7396 12.0393 9.66039 13.12 9.66039 14.4467ZM9.07465 18.2042C9.26214 18.2042 9.45714 18.13 9.60039 17.9867C9.89964 17.6942 9.89964 17.215 9.60039 16.9217C8.24215 15.565 8.24215 13.345 9.60039 11.9868C9.89964 11.6943 9.89964 11.2225 9.60039 10.9218C9.30714 10.63 8.83465 10.63 8.54215 10.9218C7.59791 11.8668 7.07967 13.12 7.07967 14.4542C7.07967 15.7892 7.59791 17.0417 8.54215 17.9867C8.6929 18.13 8.8804 18.2042 9.07465 18.2042ZM7.24467 20.0192C7.44041 20.0192 7.63466 19.9442 7.77716 19.8017C8.07041 19.5092 8.07041 19.0299 7.77716 18.7367C6.63042 17.5899 6.00043 16.0674 6.00043 14.4467C6.00043 12.8267 6.63042 11.2967 7.77716 10.15C8.07041 9.85675 8.07041 9.38426 7.77716 9.09251C7.48466 8.79926 7.01217 8.79926 6.72042 9.09251C5.28793 10.525 4.50044 12.4217 4.50044 14.4467C4.50044 16.4724 5.28793 18.3699 6.72042 19.8017C6.86217 19.9442 7.05717 20.0192 7.24467 20.0192ZM20.827 7.2318L22.147 8.39429C22.462 8.67179 22.642 9.06928 22.642 9.48928V22.4949C22.642 23.2966 21.9978 23.9491 21.1953 23.9491H2.94721C2.15222 23.9491 1.50047 23.2966 1.50047 22.4949V9.48928C1.50047 9.06928 1.67972 8.67179 1.99472 8.39429L11.1146 0.354371C11.6629 -0.118124 12.4796 -0.118124 13.0271 0.354371L16.1021 3.06934C16.1253 2.67185 16.4546 2.35685 16.8521 2.35685H20.077C20.4895 2.35685 20.827 2.69435 20.827 3.10684V7.2318ZM12.0712 15.3553C12.5737 15.3553 12.9802 14.948 12.9802 14.4455C12.9802 13.9438 12.5737 13.5366 12.0712 13.5366C11.5687 13.5366 11.1614 13.9438 11.1614 14.4455C11.1614 14.948 11.5687 15.3553 12.0712 15.3553Z" fill="black"/>
</svg>

<svg xmlns="http://www.w3.org/2000/svg" width="24" height="24" fill="none" viewBox="0 0 24 24"><path fill="currentColor" fill-rule="evenodd" d="M16.897 20.02a.78.78 0 0 0 .533-.218 7.54 7.54 0 0 0 2.212-5.355 7.54 7.54 0 0 0-2.212-5.354.755.755 0 0 0-1.065 0 .747.747 0 0 0 0 1.057 6.04 6.04 0 0 1 1.777 4.297c0 1.62-.63 3.143-1.777 4.29a.756.756 0 0 0 0 1.065c.15.142.337.217.532.217m-2.355-2.033a.75.75 0 0 0 1.058 0 4.96 4.96 0 0 0 1.463-3.533 4.96 4.96 0 0 0-1.463-3.532.75.75 0 0 0-1.058 0 .757.757 0 0 0 0 1.065 3.5 3.5 0 0 1 0 4.935.757.757 0 0 0 0 1.065m-4.882-3.54a2.41 2.41 0 0 0 4.822 0 2.41 2.41 0 0 0-4.822 0m-.585 3.757a.75.75 0 0 0 .525-1.282 3.5 3.5 0 0 1 0-4.935c.3-.293.3-.764 0-1.065a.75.75 0 0 0-1.058 0 4.96 4.96 0 0 0-1.462 3.532 4.96 4.96 0 0 0 1.462 3.533c.15.143.338.217.533.217m-1.83 1.815c.195 0 .39-.075.532-.217a.755.755 0 0 0 0-1.065A6.03 6.03 0 0 1 6 14.447c0-1.62.63-3.15 1.777-4.297a.746.746 0 0 0 0-1.057.745.745 0 0 0-1.057 0 7.52 7.52 0 0 0-2.22 5.354c0 2.025.788 3.923 2.22 5.355a.75.75 0 0 0 .525.217M20.827 7.232l1.32 1.162c.315.278.495.675.495 1.095v13.006a1.45 1.45 0 0 1-1.447 1.454H2.947A1.454 1.454 0 0 1 1.5 22.495V9.489c0-.42.18-.817.495-1.095l9.12-8.04a1.47 1.47 0 0 1 1.912 0l3.075 2.715a.756.756 0 0 1 .75-.712h3.225c.412 0 .75.337.75.75zm-8.756 8.123a.91.91 0 1 0 0-1.818.91.91 0 0 0 0 1.818" clip-rule="evenodd"/></svg>
